X: 1
T: Fair-Haired Boy, The
S: Michael Hynes
Z: Jack Gilder
M: 4/4
L: 1/8
R: reel
K: Dmaj
~A3G FGAB|=cAdc BG~G2|ABAG FAdg|fdec Add2:|
~f2df efde|~f2df ecA2|~f2df efde|fdec Add2|
~f2df efde|~f2df ecA^G|ABcd efge|afge fdd2||
